X:33
T:My Boy Tammy
C:arr. Carlo Minasi
M:4/4
L:1/8
B:Chappell's One Hundred Scotch Melodies
B:Arranged for the Concertina by Carlo Minasi
Q:"Moderato  "1/4=120
Z:Peter Dunk 2012
K:Dm
!p!D>EF>G (A>[=BF]) [c2E2]|G>AG>F (E<C) zC|\
(D>EF>G) (A>[=BF]) [c2E2]|(A>f[eG]>[dF]) (A<d) z||
[dB]|([dB]>[ec][fd][dB]) [cA]>[BG] [A2F2]|(FAc>A) (G>E) Cz|\
([dF]>f[e^C]>f) ([dD]>[AF]) [A2F2]|G>AG>F (E<D) z2||

